X:1
T:The Two Sisters
M:2/4
L:1/8
K:G
G-G GG| B2A-A| BB dd| e4| d2 B2| G4| A2 G2| E4|G-G GG| B2A-A| BB dd|\
 e3 e| g2 f2| e2 d2| e4-| e4|d-d dd| g2g-g| dd ee| g3 d|e-ed-d| B2G-G|\
 A2 G2| E4| G3 G| B2 A2| B2 e2| d3 B| B3 B| A2 A2| G4-| G4|
